assets/icons/battery/missing.svg

<?xml version="1.0" encoding="UTF-8" standalone="no"?>
<svg viewBox="0 0 24 24" height="24" width="24" version="1.1" id="svg8" sodipodi:docname="missing.svg" inkscape:version="1.1 (ce6663b3b7, 2021-05-25)"
   xmlns:inkscape="http://www.inkscape.org/namespaces/inkscape"
   xmlns:sodipodi="http://sodipodi.sourceforge.net/DTD/sodipodi-0.dtd"
   xmlns="http://www.w3.org/2000/svg"
   xmlns:svg="http://www.w3.org/2000/svg">
   <defs id="defs12" />
   <sodipodi:namedview id="namedview10" pagecolor="#ffffff" bordercolor="#666666" borderopacity="1.0" inkscape:pageshadow="2" inkscape:pageopacity="0.0" inkscape:pagecheckerboard="0" showgrid="true" inkscape:zoom="28" inkscape:cx="10.267857" inkscape:cy="12.696429" inkscape:window-width="1920" inkscape:window-height="1016" inkscape:window-x="0" inkscape:window-y="27" inkscape:window-maximized="1" inkscape:current-layer="svg8" inkscape:snap-page="true">
      <inkscape:grid type="xygrid" id="grid822" />
   </sodipodi:namedview>
   <path id="path1347-7" style="color:#000000;fill:#808080;stroke-width:4;-inkscape-stroke:none" d="M 9.984375 2 L 9.984375 3 L 7.9882812 3 C 7.5498816 3 7.2045494 3.007 6.9121094 3.1171875 C 6.6196694 3.2269675 6.3845336 3.4248612 6.2460938 3.6757812 C 5.9692137 4.1776112 5.994075 4.7920594 5.984375 5.6308594 L 5.984375 5.6328125 L 6.015625 18.335938 L 6.015625 18.337891 C 6.025625 19.176691 6.000524 19.789186 6.2773438 20.291016 C 6.4157838 20.541936 6.6509194 20.741784 6.9433594 20.851562 C 7.2357994 20.961344 7.5830848 21 8.0214844 21 L 16.015625 21 C 16.454035 21 16.80131 20.961401 17.09375 20.851562 C 17.38619 20.741782 17.619373 20.541936 17.757812 20.291016 C 18.034692 19.789186 18.005925 19.176691 18.015625 18.337891 L 18.015625 18.335938 L 17.984375 5.6328125 L 17.984375 5.6308594 C 17.974375 4.7920594 18.003374 4.1776115 17.726562 3.6757812 C 17.588123 3.4248615 17.35494 3.2269675 17.0625 3.1171875 C 16.77006 3.0075175 16.422785 3 15.984375 3 L 13.984375 3 L 13.984375 2 L 9.984375 2 z M 12.332031 3.546875 L 12.337891 3.546875 L 12.341797 3.546875 C 13.216396 3.546875 13.97199 3.665981 14.630859 3.9550781 L 14.626953 3.9472656 C 14.631573 3.9491356 14.634072 3.9531981 14.638672 3.9550781 C 14.644312 3.9575681 14.652603 3.9564744 14.658203 3.9589844 L 14.75 4 L 15.984375 4 C 16.411744 4 16.646584 4.0293344 16.708984 4.0527344 C 16.794484 4.0848344 16.835731 4.1295334 16.851562 4.1582031 C 16.946662 4.3306031 16.973875 4.7758025 16.984375 5.6328125 L 16.986328 6.3984375 C 16.994051 6.4244966 17.002624 6.450304 17.009766 6.4765625 C 17.153345 6.9331269 17.230775 7.4080053 17.234375 7.8867188 L 17.234375 7.890625 L 17.234375 7.8945312 C 17.234375 8.375997 17.154497 8.8407751 16.994141 9.2695312 L 17.015625 18.326172 L 17.015625 18.337891 C 17.005425 19.192271 16.977925 19.636194 16.882812 19.808594 C 16.867013 19.837294 16.827623 19.881995 16.742188 19.914062 C 16.619357 19.960313 16.393815 20 16.015625 20 L 13.507812 20 C 13.101128 20.351476 12.53316 20.544922 12 20.544922 C 11.465044 20.544922 10.899437 20.350874 10.494141 20 L 8.0214844 20 C 7.6433439 20 7.4176219 19.960062 7.2949219 19.914062 C 7.2094219 19.881963 7.1681637 19.837262 7.1523438 19.808594 C 7.0542438 19.630694 7.025925 19.188539 7.015625 18.324219 L 6.9824219 5.9160156 L 6.8027344 5.6367188 L 6.984375 5.5097656 C 6.9960865 4.7450667 7.0268404 4.3255201 7.1191406 4.1582031 C 7.1349406 4.1295031 7.1762387 4.0848041 7.2617188 4.0527344 C 7.3230188 4.0296344 7.5605208 4 7.9882812 4 L 9.5761719 4 C 9.7794628 3.929194 9.98491 3.8636261 10.193359 3.8085938 L 10.197266 3.8066406 L 10.199219 3.8066406 C 10.878419 3.632193 11.591637 3.5473342 12.332031 3.546875 z " />
   <path d="m 12.33875,4.54625 c -0.66625,0 -1.29625,0.07625 -1.89,0.22875 a 7.31625,7.31625 0 0 0 -1.45875,0.5575 l -0.8225,0.5725 0.7075,1.095 0.565,-0.42 c 0.86,-0.4375 1.7425,-0.675 2.645,-0.675 0.75875,0 1.3625,0.2 1.77625,0.61375 0.40875,0.395 0.61625,0.92125 0.61625,1.545 0,0.38875 -0.09125,0.75375 -0.27125,1.085 -0.1625,0.3225 -0.37375,0.62875 -0.635,0.92 -0.25625,0.28375 -0.525,0.56875 -0.81,0.8525 v 0.0012 a 7.99,7.99 0 0 0 -0.79125,0.875 l -0.0013,0.0025 a 4.575,4.575 0 0 0 -0.615,0.9825 2.9725,2.9725 0 0 0 -0.22125,1.16875 c 0,0.26 0.03,0.50375 0.07,0.7425 h 1.36 c -0.0013,-0.02875 -0.0125,-0.055 -0.0125,-0.085 v -0.23375 c 0,-0.48375 0.09625,-0.925 0.29,-1.3125 0.1875,-0.3925 0.42,-0.74875 0.69625,-1.06875 l 0.0025,-0.0025 c 0.2725,-0.33 0.5725,-0.64375 0.90125,-0.94375 a 9.0375,9.0375 0 0 0 0.875,-0.9175 c 0.2625,-0.31625 0.48,-0.6525 0.65875,-1.00875 0.1725,-0.36 0.26125,-0.76625 0.26125,-1.2275 a 3.825,3.825 0 0 0 -0.18375,-1.1425 l -0.0012,-0.0025 v -0.0025 a 2.55,2.55 0 0 0 -0.6025,-1.08375 c -0.2925,-0.31875 -0.69,-0.5825 -1.19625,-0.7875 v -0.0025 c -0.48125,-0.215 -1.11875,-0.32625 -1.91,-0.32625 z m -0.3375,12.45375 c -0.4075,0 -0.7025,0.125 -0.92875,0.375 a 1.28125,1.28125 0 0 0 -0.34375,0.8975 c 0,0.34875 0.11125,0.64 0.34375,0.8975 0.225,0.25 0.52125,0.375 0.9275,0.375 0.40625,0 0.7025,-0.12375 0.92875,-0.375 0.2325,-0.2575 0.34375,-0.55 0.34375,-0.8975 0,-0.35 -0.11125,-0.64 -0.34375,-0.8975 -0.225,-0.25 -0.5225,-0.375 -0.92875,-0.375 z" font-family="Ubuntu" font-size="72.036px" font-weight="500" letter-spacing="0" style="line-height:125%;-inkscape-font-specification:'Ubuntu Medium';text-align:center;fill:#808080;fill-opacity:1;stroke-width:1" text-anchor="middle" word-spacing="0" id="path4" />
</svg>

<svg height="24" width="24" xmlns="http://www.w3.org/2000/svg"><path style="color:#000;fill:gray;stroke-width:4;-inkscape-stroke:none" d="M9.984 2v1H7.988c-.438 0-.783.007-1.076.117a1.26 1.26 0 0 0-.666.559c-.277.502-.252 1.116-.262 1.955v.002l.032 12.703v.002c.01.839-.015 1.451.261 1.953.139.25.374.45.666.56.293.11.64.149 1.078.149h7.995c.438 0 .785-.039 1.078-.148.292-.11.525-.31.664-.561.277-.502.248-1.114.258-1.953v-.002l-.032-12.703V5.63c-.01-.839.02-1.453-.257-1.955a1.25 1.25 0 0 0-.665-.559c-.292-.11-.64-.117-1.078-.117h-2V2h-4zm2.348 1.547h.01c.874 0 1.63.119 2.289.408l-.004-.008c.005.002.007.006.012.008.005.003.014.001.02.004L14.75 4h1.234c.428 0 .663.03.725.053a.27.27 0 0 1 .143.105c.095.173.122.618.132 1.475l.002.765c.008.026.017.052.024.079.143.456.22.931.224 1.41v.008c0 .481-.08.946-.24 1.375l.022 9.056v.012c-.01.854-.038 1.298-.133 1.47-.016.03-.055.074-.14.106-.124.046-.35.086-.727.086h-2.508a2.355 2.355 0 0 1-3.014 0H8.021c-.378 0-.603-.04-.726-.086-.086-.032-.127-.077-.143-.105-.098-.178-.126-.62-.136-1.485L6.982 5.916l-.18-.28.182-.126c.012-.765.043-1.184.135-1.352.016-.028.057-.073.143-.105C7.323 4.03 7.56 4 7.988 4h1.588a8.8 8.8 0 0 1 .617-.191l.004-.002h.002a8.576 8.576 0 0 1 2.133-.26z"/><path d="M12.339 4.546a7.54 7.54 0 0 0-1.89.229 7.316 7.316 0 0 0-1.459.557l-.823.573L8.875 7l.565-.42c.86-.438 1.742-.675 2.645-.675.759 0 1.362.2 1.776.614.409.395.616.921.616 1.545 0 .388-.09.753-.27 1.085a4.223 4.223 0 0 1-.636.92c-.256.283-.525.568-.81.852v.001a7.99 7.99 0 0 0-.791.875l-.001.003a4.575 4.575 0 0 0-.615.982 2.973 2.973 0 0 0-.222 1.17c0 .26.03.503.07.742h1.36c0-.03-.012-.055-.012-.085v-.234c0-.484.096-.925.29-1.313.187-.392.42-.748.696-1.068l.003-.003c.272-.33.572-.644.9-.944a9.037 9.037 0 0 0 .876-.917c.262-.316.48-.653.659-1.009.172-.36.26-.766.26-1.227a3.825 3.825 0 0 0-.183-1.143l-.001-.002v-.003a2.55 2.55 0 0 0-.603-1.084c-.292-.318-.69-.582-1.196-.787v-.003c-.481-.215-1.119-.326-1.91-.326zM12 17c-.407 0-.702.125-.929.375a1.281 1.281 0 0 0-.343.897c0 .35.111.64.343.898.225.25.522.375.928.375s.702-.124.929-.375c.232-.258.343-.55.343-.897 0-.35-.11-.64-.343-.898-.225-.25-.523-.375-.929-.375z" font-family="Ubuntu" font-size="72.036" font-weight="500" letter-spacing="0" style="line-height:125%;-inkscape-font-specification:'Ubuntu Medium';text-align:center;fill:gray;fill-opacity:1;stroke-width:1" text-anchor="middle" word-spacing="0"/></svg>
